icons/user-settings-fill.svg

<svg xmlns="http://www.w3.org/2000/svg" width="24" height="24" fill="none"><g clip-path="url(#a)"><g><path fill="#121212" d="M12 14V22H4C4 19.8783 4.84285 17.8434 6.34315 16.3431C7.84344 14.8429 9.87827 14 12 14ZM12 13C8.685 13 6 10.315 6 7C6 3.685 8.685 1 12 1C15.315 1 18 3.685 18 7C18 10.315 15.315 13 12 13ZM14.595 18.812C14.4682 18.2784 14.4682 17.7226 14.595 17.189L13.603 16.616L14.603 14.884L15.595 15.457C15.9932 15.0799 16.4745 14.8017 17 14.645V13.5H19V14.645C19.532 14.803 20.012 15.085 20.405 15.457L21.397 14.884L22.397 16.616L21.405 17.189C21.5316 17.7222 21.5316 18.2778 21.405 18.811L22.397 19.384L21.397 21.116L20.405 20.543C20.0068 20.9201 19.5255 21.1983 19 21.355V22.5H17V21.355C16.4745 21.1983 15.9932 20.9201 15.595 20.543L14.603 21.116L13.603 19.384L14.595 18.812ZM18 17C17.7348 17 17.4804 17.1054 17.2929 17.2929C17.1054 17.4804 17 17.7348 17 18C17 18.2652 17.1054 18.5196 17.2929 18.7071C17.4804 18.8946 17.7348 19 18 19C18.2652 19 18.5196 18.8946 18.7071 18.7071C18.8946 18.5196 19 18.2652 19 18C19 17.7348 18.8946 17.4804 18.7071 17.2929C18.5196 17.1054 18.2652 17 18 17Z"/></g></g><defs><clipPath id="a"><rect width="24" height="24" fill="white"/></clipPath></defs></svg>

<svg width="24" height="24" fill="none" xmlns="http://www.w3.org/2000/svg"><g clip-path="url(#a)"><path d="M12 14v8H4a8 8 0 0 1 8-8Zm0-1c-3.315 0-6-2.685-6-6s2.685-6 6-6 6 2.685 6 6-2.685 6-6 6Zm2.595 5.812a3.51 3.51 0 0 1 0-1.623l-.992-.573 1-1.732.992.573c.398-.377.88-.655 1.405-.812V13.5h2v1.145c.532.158 1.012.44 1.405.812l.992-.573 1 1.732-.992.573a3.511 3.511 0 0 1 0 1.622l.992.573-1 1.732-.992-.573c-.398.377-.88.655-1.405.812V22.5h-2v-1.145a3.497 3.497 0 0 1-1.405-.812l-.992.573-1-1.732.992-.572ZM18 17a1 1 0 1 0 0 2 1 1 0 0 0 0-2Z" /></g><defs><clipPath id="a"><path fill="#fff" d="M0 0h24v24H0z"/></clipPath></defs></svg>
